X: 5
T: Ways of the World [2]
B: canberra pickers and fiddlers
B: tunes
M:4/4
L:1/8
R: reel
Q: 1/4=100
K:A
V:1 
[A,2E2]-|[A,2E2]A2 ABcA|BcBA GEBG|[E2A2]A2 ABcA|GABG A2[A,2E2]-|
[A,2E2]A2 ABcA|BcBA GEBc|(c[d2e2])[de] dfed|c2A2A2:|
|:[A,2E2]-|[A,2E2]a2 abaf|=g2[d4g4]ef|[M:6/4]=ggga b2 (a/b/a) g2d2|[M:4/4]+slide+[e3e3][de] [e2e2] [A,2E2]-|  
[A,2E2]a2 abaf|=g2[d4g4]ef|=gage dfed|c2A2-A2:|
A2|[ce]-[e2e2][ee]- [ee]fed|BcBA GABc|(c[d2e2])[de] dfed|c2A2-A2 A2| 
[ce]-[e2e2][ee]- [ee]fed|BcBA GABc|(c[d2e2])[de] dfed|c2A2-A2|]
% abcbook-tune_id 63ae8f1cf63d773949da2027
% abcbook-tune_composer_id 
% abcbook-link-0 https://www.youtube.com/watch?v=kPDnkKzXvdg
% abcbook-boost 12
% abcbook-difficulty 0
% abcbook-tags canberra pickers and fiddlers,old time tunes,© free
% abcbook-tablature 
% abcbook-transpose -7
% abcbook-tuning AEAE
% abcbook-lastupdated 1739276619408
% abcbook-src-url https://tunebook.net/scrape/tunes.abc
% abcbook-soundfonts 
% abcbook-repeats 1
%%MIDI transpose -7


